build/img/logo.svg

<svg width="137" height="47" viewBox="0 0 137 47" preserveAspectRatio="none" fill="none" xmlns="http://www.w3.org/2000/svg">
<path d="M0.9 41.8H1C1.09333 41.8 1.18 41.76 1.26 41.68C1.34 41.6 1.40667 41.5067 1.46 41.4C1.52667 41.2933 1.57333 41.18 1.6 41.06C1.62667 40.9267 1.64 40.8067 1.64 40.7V30.06C1.64 29.9667 1.62667 29.86 1.6 29.74C1.57333 29.62 1.52667 29.5067 1.46 29.4C1.40667 29.28 1.33333 29.1867 1.24 29.12C1.16 29.04 1.06667 29 0.96 29H0.86V28.8H4.14C5.38 28.8 6.34667 29.0733 7.04 29.62C7.74667 30.1667 8.1 30.8933 8.1 31.8C8.1 32.1867 8.03333 32.5333 7.9 32.84C7.76667 33.1467 7.59333 33.42 7.38 33.66C7.18 33.9 6.96 34.1067 6.72 34.28C6.48 34.44 6.25333 34.5733 6.04 34.68C6.6 34.7867 7.06667 34.9667 7.44 35.22C7.81333 35.4733 8.11333 35.7667 8.34 36.1C8.58 36.42 8.74667 36.7667 8.84 37.14C8.93333 37.5133 8.98 37.88 8.98 38.24C8.98 38.9333 8.85333 39.52 8.6 40C8.34667 40.4667 8.00667 40.8533 7.58 41.16C7.16667 41.4533 6.68667 41.6667 6.14 41.8C5.60667 41.9333 5.05333 42 4.48 42H0.9V41.8ZM7.62 38.36C7.51333 37.3333 7.16667 36.54 6.58 35.98C5.99333 35.42 5.16667 35.14 4.1 35.14H2.98V41.34H4.14C5.22 41.34 6.06667 41.1 6.68 40.62C7.30667 40.1267 7.62 39.4467 7.62 38.58V38.36ZM6.8 31.98C6.76 31.2067 6.48667 30.5933 5.98 30.14C5.48667 29.6867 4.82 29.46 3.98 29.46H2.98V34.5H4.02C4.58 34.5 5.03333 34.4267 5.38 34.28C5.74 34.1333 6.02667 33.9467 6.24 33.72C6.45333 33.48 6.6 33.22 6.68 32.94C6.76 32.66 6.8 32.3867 6.8 32.12V31.98ZM11.8852 41.8H11.9852C12.0918 41.8 12.1852 41.7667 12.2652 41.7C12.3452 41.62 12.4118 41.5267 12.4652 41.42C12.5318 41.3133 12.5785 41.2 12.6052 41.08C12.6452 40.96 12.6652 40.8467 12.6652 40.74V30.04C12.6652 29.9467 12.6452 29.84 12.6052 29.72C12.5785 29.6 12.5318 29.4867 12.4652 29.38C12.4118 29.2733 12.3452 29.1867 12.2652 29.12C12.1852 29.04 12.0918 29 11.9852 29H11.8852V28.8H19.5852V30.66H19.3852C19.3585 30.3533 19.2385 30.0867 19.0252 29.86C18.8118 29.62 18.4785 29.5 18.0252 29.5H14.0052V34.56H17.3252C17.6318 34.56 17.8852 34.4667 18.0852 34.28C18.2985 34.0933 18.4052 33.8733 18.4052 33.62H18.6052V36.12H18.4052C18.4052 35.88 18.3052 35.6733 18.1052 35.5C17.9052 35.3267 17.6452 35.24 17.3252 35.24H14.0052V41.3H18.3852C18.6385 41.3 18.8585 41.24 19.0452 41.12C19.2318 41 19.3852 40.86 19.5052 40.7C19.6385 40.5267 19.7318 40.3467 19.7852 40.16C19.8518 39.96 19.8852 39.7933 19.8852 39.66H20.0852V42H11.8852V41.8ZM29.1681 29.32C28.1815 29.32 27.3215 29.5 26.5881 29.86C25.8681 30.2067 25.2681 30.6667 24.7881 31.24C24.3081 31.8 23.9481 32.4333 23.7081 33.14C23.4815 33.8467 23.3681 34.5467 23.3681 35.24C23.3681 36.0267 23.5215 36.8 23.8281 37.56C24.1348 38.3067 24.5548 38.9733 25.0881 39.56C25.6348 40.1333 26.2681 40.6 26.9881 40.96C27.7081 41.3067 28.4881 41.48 29.3281 41.48C29.5681 41.48 29.8481 41.4533 30.1681 41.4C30.5015 41.3467 30.8281 41.2467 31.1481 41.1C31.4681 40.94 31.7615 40.72 32.0281 40.44C32.3081 40.16 32.5215 39.7933 32.6681 39.34H32.8681V41.56C32.6681 41.56 32.4548 41.5867 32.2281 41.64C32.0148 41.6933 31.7748 41.7533 31.5081 41.82C31.1615 41.9133 30.7748 42 30.3481 42.08C29.9348 42.16 29.4948 42.2 29.0281 42.2C27.8681 42.2 26.8481 42 25.9681 41.6C25.0881 41.2 24.3548 40.68 23.7681 40.04C23.1815 39.4 22.7415 38.68 22.4481 37.88C22.1548 37.0667 22.0081 36.2467 22.0081 35.42C22.0081 34.5933 22.1548 33.7733 22.4481 32.96C22.7415 32.1467 23.1881 31.42 23.7881 30.78C24.3881 30.1267 25.1415 29.6 26.0481 29.2C26.9548 28.8 28.0215 28.6 29.2481 28.6C29.6881 28.6 30.0815 28.64 30.4281 28.72C30.7881 28.8 31.1081 28.88 31.3881 28.96C31.5881 29.0267 31.7681 29.08 31.9281 29.12C32.1015 29.1467 32.2681 29.16 32.4281 29.16V31.38H32.2281C32.1481 30.9667 32.0015 30.6267 31.7881 30.36C31.5748 30.08 31.3215 29.8667 31.0281 29.72C30.7481 29.5733 30.4415 29.4733 30.1081 29.42C29.7881 29.3533 29.4748 29.32 29.1681 29.32ZM43.7691 41.8H43.8691C43.9624 41.8 44.0491 41.7667 44.1291 41.7C44.2091 41.62 44.2757 41.5267 44.3291 41.42C44.3957 41.3 44.4424 41.18 44.4691 41.06C44.4957 40.9267 44.5091 40.8067 44.5091 40.7V35.26H38.1091V40.7C38.1091 40.8067 38.1224 40.9267 38.1491 41.06C38.1757 41.18 38.2157 41.2933 38.2691 41.4C38.3224 41.5067 38.3824 41.6 38.4491 41.68C38.5291 41.76 38.6224 41.8 38.7291 41.8H38.8291V42H36.0291V41.8H36.1291C36.2224 41.8 36.3091 41.7667 36.3891 41.7C36.4691 41.62 36.5357 41.5267 36.5891 41.42C36.6557 41.3 36.7024 41.18 36.7291 41.06C36.7557 40.9267 36.7691 40.8067 36.7691 40.7V30.04C36.7691 29.9467 36.7557 29.84 36.7291 29.72C36.7024 29.6 36.6624 29.4867 36.6091 29.38C36.5557 29.2733 36.4891 29.1867 36.4091 29.12C36.3291 29.04 36.2357 29 36.1291 29H36.0291V28.8H38.8291V29H38.7291C38.6224 29 38.5291 29.04 38.4491 29.12C38.3691 29.1867 38.3024 29.2733 38.2491 29.38C38.2091 29.4867 38.1757 29.6 38.1491 29.72C38.1224 29.84 38.1091 29.9467 38.1091 30.04V34.56H44.5091V30.04C44.5091 29.9467 44.4957 29.84 44.4691 29.72C44.4424 29.6 44.4024 29.4867 44.3491 29.38C44.2957 29.2733 44.2291 29.1867 44.1491 29.12C44.0691 29.04 43.9757 29 43.8691 29H43.7691V28.8H46.5691V29H46.4691C46.3624 29 46.2691 29.04 46.1891 29.12C46.1091 29.1867 46.0424 29.2733 45.9891 29.38C45.9491 29.4867 45.9157 29.6 45.8891 29.72C45.8624 29.84 45.8491 29.9467 45.8491 30.04V40.7C45.8491 40.8067 45.8624 40.9267 45.8891 41.06C45.9291 41.18 45.9757 41.2933 46.0291 41.4C46.0824 41.5067 46.1424 41.6 46.2091 41.68C46.2891 41.76 46.3757 41.8 46.4691 41.8H46.5691V42H43.7691V41.8ZM57.0705 41.8H57.1705C57.4905 41.8 57.6505 41.6533 57.6505 41.36C57.6505 41.2533 57.6305 41.14 57.5905 41.02L55.7905 36.16H52.2905L50.5505 40.94C50.5105 41.0467 50.4905 41.1467 50.4905 41.24C50.4905 41.4133 50.5371 41.5533 50.6305 41.66C50.7238 41.7533 50.8238 41.8 50.9305 41.8H51.0305V42H48.8105V41.8H48.9105C49.0838 41.8 49.2505 41.7 49.4105 41.5C49.5838 41.2867 49.7238 41.04 49.8305 40.76L54.4105 28.56L58.8905 40.64C58.9838 40.9067 59.1105 41.1667 59.2705 41.42C59.4438 41.6733 59.6638 41.8 59.9305 41.8H60.0305V42H57.0705V41.8ZM52.4905 35.48H55.5705L54.0305 31.3L52.4905 35.48ZM68.8227 41.8H68.9227C69.016 41.8 69.1027 41.76 69.1827 41.68C69.2627 41.6 69.3293 41.5067 69.3827 41.4C69.4493 41.2933 69.496 41.18 69.5227 41.06C69.5493 40.9267 69.5627 40.8067 69.5627 40.7V30.06C69.5627 29.9667 69.5493 29.86 69.5227 29.74C69.496 29.62 69.4493 29.5067 69.3827 29.4C69.3293 29.28 69.256 29.1867 69.1627 29.12C69.0827 29.04 68.9893 29 68.8827 29H68.7827V28.8H72.0627C73.3027 28.8 74.2693 29.0733 74.9627 29.62C75.6693 30.1667 76.0227 30.8933 76.0227 31.8C76.0227 32.1867 75.956 32.5333 75.8227 32.84C75.6893 33.1467 75.516 33.42 75.3027 33.66C75.1027 33.9 74.8827 34.1067 74.6427 34.28C74.4027 34.44 74.176 34.5733 73.9627 34.68C74.5227 34.7867 74.9893 34.9667 75.3627 35.22C75.736 35.4733 76.036 35.7667 76.2627 36.1C76.5027 36.42 76.6693 36.7667 76.7627 37.14C76.856 37.5133 76.9027 37.88 76.9027 38.24C76.9027 38.9333 76.776 39.52 76.5227 40C76.2693 40.4667 75.9293 40.8533 75.5027 41.16C75.0893 41.4533 74.6093 41.6667 74.0627 41.8C73.5293 41.9333 72.976 42 72.4027 42H68.8227V41.8ZM75.5427 38.36C75.436 37.3333 75.0893 36.54 74.5027 35.98C73.916 35.42 73.0893 35.14 72.0227 35.14H70.9027V41.34H72.0627C73.1427 41.34 73.9893 41.1 74.6027 40.62C75.2293 40.1267 75.5427 39.4467 75.5427 38.58V38.36ZM74.7227 31.98C74.6827 31.2067 74.4093 30.5933 73.9027 30.14C73.4093 29.6867 72.7427 29.46 71.9027 29.46H70.9027V34.5H71.9427C72.5027 34.5 72.956 34.4267 73.3027 34.28C73.6627 34.1333 73.9493 33.9467 74.1627 33.72C74.376 33.48 74.5227 33.22 74.6027 32.94C74.6827 32.66 74.7227 32.3867 74.7227 32.12V31.98ZM86.1447 29.32C85.158 29.32 84.298 29.5 83.5647 29.86C82.8447 30.2067 82.2447 30.6667 81.7647 31.24C81.2847 31.8 80.9247 32.4333 80.6847 33.14C80.458 33.8467 80.3447 34.5467 80.3447 35.24C80.3447 36.0267 80.498 36.8 80.8047 37.56C81.1114 38.3067 81.5314 38.9733 82.0647 39.56C82.6114 40.1333 83.2447 40.6 83.9647 40.96C84.6847 41.3067 85.4647 41.48 86.3047 41.48C86.5447 41.48 86.8247 41.4533 87.1447 41.4C87.478 41.3467 87.8047 41.2467 88.1247 41.1C88.4447 40.94 88.738 40.72 89.0047 40.44C89.2847 40.16 89.498 39.7933 89.6447 39.34H89.8447V41.56C89.6447 41.56 89.4314 41.5867 89.2047 41.64C88.9914 41.6933 88.7514 41.7533 88.4847 41.82C88.138 41.9133 87.7514 42 87.3247 42.08C86.9114 42.16 86.4714 42.2 86.0047 42.2C84.8447 42.2 83.8247 42 82.9447 41.6C82.0647 41.2 81.3314 40.68 80.7447 40.04C80.158 39.4 79.718 38.68 79.4247 37.88C79.1314 37.0667 78.9847 36.2467 78.9847 35.42C78.9847 34.5933 79.1314 33.7733 79.4247 32.96C79.718 32.1467 80.1647 31.42 80.7647 30.78C81.3647 30.1267 82.118 29.6 83.0247 29.2C83.9314 28.8 84.998 28.6 86.2247 28.6C86.6647 28.6 87.058 28.64 87.4047 28.72C87.7647 28.8 88.0847 28.88 88.3647 28.96C88.5647 29.0267 88.7447 29.08 88.9047 29.12C89.078 29.1467 89.2447 29.16 89.4047 29.16V31.38H89.2047C89.1247 30.9667 88.978 30.6267 88.7647 30.36C88.5514 30.08 88.298 29.8667 88.0047 29.72C87.7247 29.5733 87.418 29.4733 87.0847 29.42C86.7647 29.3533 86.4514 29.32 86.1447 29.32ZM92.7656 41.8H92.8656C92.9723 41.8 93.0656 41.7667 93.1456 41.7C93.2256 41.62 93.2923 41.5267 93.3456 41.42C93.4123 41.3133 93.459 41.2 93.4856 41.08C93.5256 40.96 93.5456 40.8467 93.5456 40.74V30.04C93.5456 29.9467 93.5256 29.84 93.4856 29.72C93.459 29.6 93.4123 29.4867 93.3456 29.38C93.2923 29.2733 93.2256 29.1867 93.1456 29.12C93.0656 29.04 92.9723 29 92.8656 29H92.7656V28.8H100.466V30.66H100.266C100.239 30.3533 100.119 30.0867 99.9056 29.86C99.6923 29.62 99.359 29.5 98.9056 29.5H94.8856V34.56H98.2056C98.5123 34.56 98.7656 34.4667 98.9656 34.28C99.179 34.0933 99.2856 33.8733 99.2856 33.62H99.4856V36.12H99.2856C99.2856 35.88 99.1856 35.6733 98.9856 35.5C98.7856 35.3267 98.5256 35.24 98.2056 35.24H94.8856V41.3H99.2656C99.519 41.3 99.739 41.24 99.9256 41.12C100.112 41 100.266 40.86 100.386 40.7C100.519 40.5267 100.612 40.3467 100.666 40.16C100.732 39.96 100.766 39.7933 100.766 39.66H100.966V42H92.7656V41.8ZM106.453 41.8H106.553V42H103.673V41.8H103.773C103.879 41.8 103.973 41.7667 104.053 41.7C104.133 41.62 104.199 41.5267 104.253 41.42C104.319 41.3133 104.366 41.2 104.393 41.08C104.419 40.96 104.433 40.8467 104.433 40.74V30.04C104.433 29.9467 104.419 29.84 104.393 29.72C104.366 29.6 104.319 29.4867 104.253 29.38C104.199 29.2733 104.133 29.1867 104.053 29.12C103.973 29.04 103.879 29 103.773 29H103.673V28.8H111.373V30.92H111.173C111.173 30.44 111.066 30.0867 110.853 29.86C110.653 29.62 110.333 29.5 109.893 29.5H105.793V40.74C105.793 40.8467 105.806 40.96 105.833 41.08C105.859 41.2 105.899 41.3133 105.953 41.42C106.019 41.5267 106.093 41.62 106.173 41.7C106.253 41.7667 106.346 41.8 106.453 41.8ZM122.622 41.3V43.8H122.422C122.409 43.6267 122.362 43.4333 122.282 43.22C122.202 43.0067 122.089 42.8067 121.942 42.62C121.809 42.4467 121.649 42.3 121.462 42.18C121.275 42.06 121.069 42 120.842 42H111.622C111.395 42 111.189 42.06 111.002 42.18C110.815 42.3133 110.649 42.4667 110.502 42.64C110.369 42.8267 110.255 43.0267 110.162 43.24C110.082 43.4533 110.035 43.64 110.022 43.8H109.822V41.3H110.702C111.129 41.3 111.429 41.0533 111.602 40.56L116.202 28.5L120.842 40.5C120.935 40.7 121.062 40.8867 121.222 41.06C121.382 41.22 121.569 41.3 121.782 41.3H122.622ZM112.042 41.3H119.742L115.882 31.36L112.042 41.3ZM133.088 41.8H133.188C133.508 41.8 133.668 41.6533 133.668 41.36C133.668 41.2533 133.648 41.14 133.608 41.02L131.808 36.16H128.308L126.568 40.94C126.528 41.0467 126.508 41.1467 126.508 41.24C126.508 41.4133 126.554 41.5533 126.648 41.66C126.741 41.7533 126.841 41.8 126.948 41.8H127.048V42H124.828V41.8H124.928C125.101 41.8 125.268 41.7 125.428 41.5C125.601 41.2867 125.741 41.04 125.848 40.76L130.428 28.56L134.908 40.64C135.001 40.9067 135.128 41.1667 135.288 41.42C135.461 41.6733 135.681 41.8 135.948 41.8H136.048V42H133.088V41.8ZM128.508 35.48H131.588L130.048 31.3L128.508 35.48Z" fill="currentColor" stroke="none"/>
<path d="M72.7534 9C72.7534 11.3296 71.6198 13.4742 70.4418 15.0666C69.857 15.8573 69.2713 16.498 68.8322 16.9406C68.6794 17.0947 68.5446 17.2245 68.4342 17.3278C68.3239 17.2245 68.1891 17.0947 68.0362 16.9406C67.5971 16.498 67.0115 15.8573 66.4266 15.0666C65.2486 13.4742 64.115 11.3296 64.115 9C64.115 6.67044 65.2486 4.52577 66.4266 2.93339C67.0115 2.14273 67.5971 1.502 68.0362 1.0594C68.1891 0.905279 68.3239 0.775524 68.4342 0.672181C68.5446 0.775524 68.6794 0.905279 68.8322 1.0594C69.2713 1.502 69.857 2.14273 70.4418 2.93339C71.6198 4.52577 72.7534 6.67044 72.7534 9Z"/>
<path d="M66.5571 8.77945C68.018 10.4467 68.5896 12.8775 68.7815 14.9616C68.8766 15.9945 68.8764 16.9202 68.8523 17.5874C68.843 17.8431 68.8303 18.0602 68.8182 18.23C68.6694 18.2438 68.4792 18.2584 68.2551 18.2689C67.6705 18.2964 66.8593 18.2967 65.9543 18.1882C64.1282 17.9692 61.9983 17.3167 60.5374 15.6495C59.0765 13.9822 58.5048 11.5515 58.3129 9.46735C58.2179 8.43447 58.2181 7.50877 58.2422 6.84152C58.2514 6.58577 58.2642 6.36869 58.2763 6.1989C58.425 6.18509 58.6152 6.17057 58.8393 6.16002C59.424 6.13249 60.2351 6.13224 61.1401 6.24077C62.9663 6.45975 65.0962 7.11217 66.5571 8.77945Z"/>
<path d="M71.6492 8.77945C70.1883 10.4467 69.6167 12.8775 69.4248 14.9616C69.3297 15.9945 69.3299 16.9202 69.354 17.5874C69.3633 17.8431 69.376 18.0602 69.3881 18.23C69.5369 18.2438 69.7271 18.2584 69.9512 18.2689C70.5358 18.2964 71.347 18.2967 72.252 18.1882C74.0781 17.9692 76.208 17.3167 77.6689 15.6495C79.1298 13.9822 79.7015 11.5515 79.8934 9.46735C79.9884 8.43447 79.9882 7.50877 79.9641 6.84152C79.9549 6.58577 79.9421 6.36869 79.93 6.1989C79.7813 6.18509 79.5911 6.17057 79.367 6.16002C78.7823 6.13249 77.9712 6.13224 77.0662 6.24077C75.24 6.45975 73.1101 7.11217 71.6492 8.77945Z"/>
<path d="M47 12H2"/>
<path d="M136 12L90 12"/>
</svg>

<svg width="137" height="47" viewBox="0 0 137 47" preserveAspectRatio="none" fill="none" xmlns="http://www.w3.org/2000/svg"><path d="M.9 41.8H1c.093 0 .18-.04.26-.12.08-.08.147-.173.2-.28a1.08 1.08 0 00.14-.34c.027-.133.04-.253.04-.36V30.06c0-.093-.013-.2-.04-.32a1.08 1.08 0 00-.14-.34.668.668 0 00-.22-.28.384.384 0 00-.28-.12h-.1v-.2h3.28c1.24 0 2.207.273 2.9.82.707.547 1.06 1.273 1.06 2.18 0 .387-.067.733-.2 1.04-.133.307-.307.58-.52.82a3.6 3.6 0 01-.66.62c-.24.16-.467.293-.68.4.56.107 1.027.287 1.4.54.373.253.673.547.9.88.24.32.407.667.5 1.04.093.373.14.74.14 1.1 0 .693-.127 1.28-.38 1.76a3.417 3.417 0 01-1.02 1.16 4.166 4.166 0 01-1.44.64 6.82 6.82 0 01-1.66.2H.9v-.2zm6.72-3.44c-.107-1.027-.453-1.82-1.04-2.38-.587-.56-1.413-.84-2.48-.84H2.98v6.2h1.16c1.08 0 1.927-.24 2.54-.72.627-.493.94-1.173.94-2.04v-.22zm-.82-6.38c-.04-.773-.313-1.387-.82-1.84-.493-.453-1.16-.68-2-.68h-1v5.04h1.04c.56 0 1.013-.073 1.36-.22.36-.147.647-.333.86-.56.213-.24.36-.5.44-.78.08-.28.12-.553.12-.82v-.14zm5.085 9.82h.1c.107 0 .2-.033.28-.1.08-.08.147-.173.2-.28a1.06 1.06 0 00.14-.34c.04-.12.06-.233.06-.34v-10.7c0-.093-.02-.2-.06-.32a1.082 1.082 0 00-.14-.34.796.796 0 00-.2-.26.384.384 0 00-.28-.12h-.1v-.2h7.7v1.86h-.2a1.302 1.302 0 00-.36-.8c-.213-.24-.546-.36-1-.36h-4.02v5.06h3.32c.307 0 .56-.093.76-.28.213-.187.32-.407.32-.66h.2v2.5h-.2c0-.24-.1-.447-.3-.62-.2-.173-.46-.26-.78-.26h-3.32v6.06h4.38c.253 0 .473-.06.66-.18.187-.12.34-.26.46-.42.134-.173.227-.353.28-.54.067-.2.1-.367.1-.5h.2V42h-8.2v-.2zm17.283-12.48c-.986 0-1.846.18-2.58.54a5.33 5.33 0 00-1.8 1.38c-.48.56-.84 1.193-1.08 1.9a6.849 6.849 0 00-.34 2.1c0 .787.154 1.56.46 2.32a6.775 6.775 0 001.26 2 6.815 6.815 0 001.9 1.4c.72.347 1.5.52 2.34.52.24 0 .52-.027.84-.08.334-.053.66-.153.98-.3.32-.16.614-.38.88-.66.28-.28.494-.647.64-1.1h.2v2.22c-.2 0-.413.027-.64.08l-.72.18c-.346.093-.733.18-1.16.26a6.94 6.94 0 01-1.32.12c-1.16 0-2.18-.2-3.06-.6-.88-.4-1.613-.92-2.2-1.56a6.465 6.465 0 01-1.32-2.16 7.205 7.205 0 01-.44-2.46c0-.827.147-1.647.44-2.46.293-.813.74-1.54 1.34-2.18.6-.653 1.354-1.18 2.26-1.58.907-.4 1.974-.6 3.2-.6.44 0 .833.04 1.18.12.36.08.68.16.96.24.2.067.38.12.54.16.174.027.34.04.5.04v2.22h-.2c-.08-.413-.227-.753-.44-1.02a2.171 2.171 0 00-.76-.64 2.982 2.982 0 00-.92-.3 4.6 4.6 0 00-.94-.1zM43.77 41.8h.1c.093 0 .18-.033.26-.1.08-.08.147-.173.2-.28.067-.12.113-.24.14-.36.027-.133.04-.253.04-.36v-5.44h-6.4v5.44c0 .107.013.227.04.36a1.465 1.465 0 00.3.62c.08.08.173.12.28.12h.1v.2h-2.8v-.2h.1c.093 0 .18-.033.26-.1.08-.08.147-.173.2-.28.067-.12.113-.24.14-.36.027-.133.04-.253.04-.36V30.04c0-.093-.013-.2-.04-.32a1.474 1.474 0 00-.12-.34.796.796 0 00-.2-.26.384.384 0 00-.28-.12h-.1v-.2h2.8v.2h-.1c-.107 0-.2.04-.28.12a.795.795 0 00-.2.26c-.04.107-.073.22-.1.34-.027.12-.04.227-.04.32v4.52h6.4v-4.52c0-.093-.013-.2-.04-.32a1.474 1.474 0 00-.12-.34.796.796 0 00-.2-.26.384.384 0 00-.28-.12h-.1v-.2h2.8v.2h-.1c-.107 0-.2.04-.28.12a.795.795 0 00-.2.26c-.04.107-.073.22-.1.34-.027.12-.04.227-.04.32V40.7c0 .107.013.227.04.36.04.12.087.233.14.34.053.107.113.2.18.28.08.08.167.12.26.12h.1v.2h-2.8v-.2zm13.302 0h.1c.32 0 .48-.147.48-.44 0-.107-.02-.22-.06-.34l-1.8-4.86h-3.5l-1.74 4.78a.857.857 0 00-.06.3c0 .173.046.313.14.42a.42.42 0 00.3.14h.1v.2h-2.22v-.2h.1c.173 0 .34-.1.5-.3.173-.213.313-.46.42-.74l4.58-12.2 4.48 12.08c.093.267.22.527.38.78.173.253.393.38.66.38h.1v.2h-2.96v-.2zm-4.58-6.32h3.08l-1.54-4.18-1.54 4.18zm16.332 6.32h.1c.093 0 .18-.04.26-.12.08-.08.146-.173.2-.28.066-.107.113-.22.14-.34.026-.133.04-.253.04-.36V30.06c0-.093-.014-.2-.04-.32a1.082 1.082 0 00-.14-.34.669.669 0 00-.22-.28.384.384 0 00-.28-.12h-.1v-.2h3.28c1.24 0 2.206.273 2.9.82.706.547 1.06 1.273 1.06 2.18 0 .387-.067.733-.2 1.04-.134.307-.307.58-.52.82a3.6 3.6 0 01-.66.62c-.24.16-.467.293-.68.4.56.107 1.026.287 1.4.54.373.253.673.547.9.88.24.32.406.667.5 1.04.093.373.14.74.14 1.1 0 .693-.127 1.28-.38 1.76a3.418 3.418 0 01-1.02 1.16 4.167 4.167 0 01-1.44.64c-.534.133-1.087.2-1.66.2h-3.58v-.2zm6.72-3.44c-.107-1.027-.454-1.82-1.04-2.38-.587-.56-1.414-.84-2.48-.84h-1.12v6.2h1.16c1.08 0 1.926-.24 2.54-.72.626-.493.94-1.173.94-2.04v-.22zm-.82-6.38c-.04-.773-.314-1.387-.82-1.84-.494-.453-1.16-.68-2-.68h-1v5.04h1.04c.56 0 1.013-.073 1.36-.22.36-.147.646-.333.86-.56.213-.24.36-.5.44-.78.08-.28.12-.553.12-.82v-.14zm11.422-2.66c-.987 0-1.847.18-2.58.54a5.33 5.33 0 00-1.8 1.38c-.48.56-.84 1.193-1.08 1.9a6.846 6.846 0 00-.34 2.1c0 .787.153 1.56.46 2.32a6.775 6.775 0 001.26 2 6.815 6.815 0 001.9 1.4c.72.347 1.5.52 2.34.52.24 0 .52-.027.84-.08.333-.053.66-.153.98-.3.32-.16.613-.38.88-.66.28-.28.493-.647.64-1.1h.2v2.22c-.2 0-.414.027-.64.08l-.72.18c-.347.093-.734.18-1.16.26a6.94 6.94 0 01-1.32.12c-1.16 0-2.18-.2-3.06-.6-.88-.4-1.614-.92-2.2-1.56a6.462 6.462 0 01-1.32-2.16 7.205 7.205 0 01-.44-2.46c0-.827.146-1.647.44-2.46.293-.813.74-1.54 1.34-2.18.6-.653 1.353-1.18 2.26-1.58.906-.4 1.973-.6 3.2-.6.44 0 .833.04 1.18.12.36.08.68.16.96.24.2.067.38.12.54.16.173.027.34.04.5.04v2.22h-.2c-.08-.413-.227-.753-.44-1.02a2.172 2.172 0 00-.76-.64 2.983 2.983 0 00-.92-.3 4.6 4.6 0 00-.94-.1zm6.62 12.48h.1c.107 0 .2-.033.28-.1.08-.08.147-.173.2-.28a1.06 1.06 0 00.14-.34c.04-.12.06-.233.06-.34v-10.7c0-.093-.02-.2-.06-.32a1.077 1.077 0 00-.14-.34.795.795 0 00-.2-.26.384.384 0 00-.28-.12h-.1v-.2h7.701v1.86h-.2a1.303 1.303 0 00-.36-.8c-.214-.24-.547-.36-1-.36h-4.02v5.06h3.32c.306 0 .56-.093.76-.28.213-.187.32-.407.32-.66h.2v2.5h-.2c0-.24-.1-.447-.3-.62-.2-.173-.46-.26-.78-.26h-3.32v6.06h4.38c.253 0 .473-.06.66-.18a1.755 1.755 0 00.74-.96c.066-.2.1-.367.1-.5h.2V42h-8.2v-.2zm13.688 0h.1v.2h-2.88v-.2h.1c.106 0 .2-.033.28-.1.08-.08.146-.173.2-.28.066-.107.113-.22.14-.34.026-.12.04-.233.04-.34v-10.7c0-.093-.014-.2-.04-.32a1.103 1.103 0 00-.14-.34.805.805 0 00-.2-.26.385.385 0 00-.28-.12h-.1v-.2h7.7v2.12h-.2c0-.48-.107-.833-.32-1.06-.2-.24-.52-.36-.96-.36h-4.1v11.24a1.55 1.55 0 00.16.68c.066.107.14.2.22.28.08.067.173.1.28.1zm16.169-.5v2.5h-.2a2.13 2.13 0 00-.14-.58 2.233 2.233 0 00-.34-.6 1.88 1.88 0 00-.48-.44 1.123 1.123 0 00-.62-.18h-9.22c-.227 0-.433.06-.62.18a2.733 2.733 0 00-.5.46 3.318 3.318 0 00-.34.6c-.08.213-.127.4-.14.56h-.2v-2.5h.88c.427 0 .727-.247.9-.74l4.6-12.06 4.64 12c.093.2.22.387.38.56.16.16.347.24.56.24h.84zm-10.58 0h7.7l-3.86-9.94-3.84 9.94zm21.046.5h.1c.32 0 .48-.147.48-.44 0-.107-.02-.22-.06-.34l-1.8-4.86h-3.5l-1.74 4.78a.857.857 0 00-.06.3c0 .173.046.313.14.42a.42.42 0 00.3.14h.1v.2h-2.22v-.2h.1c.173 0 .34-.1.5-.3.173-.213.313-.46.42-.74l4.58-12.2 4.48 12.08c.093.267.22.527.38.78.173.253.393.38.66.38h.1v.2h-2.96v-.2zm-4.58-6.32h3.08l-1.54-4.18-1.54 4.18z" fill="currentColor"/><path d="M72.753 9c0 2.33-1.133 4.474-2.311 6.067a17.308 17.308 0 01-2.008 2.26 17.32 17.32 0 01-2.008-2.261c-1.176-1.591-2.31-3.736-2.31-6.066 0-2.33 1.134-4.474 2.312-6.067a17.323 17.323 0 012.007-2.26 17.312 17.312 0 012.008 2.261C71.62 4.525 72.753 6.67 72.753 9z"/><path d="M66.557 8.78c1.461 1.667 2.033 4.098 2.224 6.182a20.83 20.83 0 01.037 3.268 14.035 14.035 0 01-2.864-.042c-1.826-.219-3.956-.871-5.417-2.538-1.46-1.668-2.032-4.098-2.224-6.183a20.847 20.847 0 01-.037-3.268 14.028 14.028 0 012.864.042c1.826.219 3.956.871 5.417 2.538zm5.093 0c-1.462 1.667-2.033 4.098-2.225 6.182a20.83 20.83 0 00-.037 3.268 14.035 14.035 0 002.864-.042c1.826-.219 3.956-.871 5.417-2.538 1.46-1.668 2.032-4.098 2.224-6.183A20.847 20.847 0 0079.93 6.2a14.028 14.028 0 00-2.864.042c-1.826.219-3.956.871-5.417 2.538zM47 12H2m134 0H90"/></svg>
